X: 38763
T: Strophic, The
R: jig
M: 6/8
K: Eminor
|:EEE FGB|BAB GFF|BAB GFF|BAG F3|
EEE FGB|BAB def|gfe dBA|GAF E3:|
EGB ABc|edc B3|edB dBG|GAG F3|
EGB ABc|egf e3|eBB dAA|GFD E3:|

